assets/icons/informations/location_on.svg

<svg viewBox="0 0 24 24" fill="#3B69D1" xmlns="http://www.w3.org/2000/svg">
<path d="M12 12C12.55 12 13.021 11.804 13.413 11.412C13.8043 11.0207 14 10.55 14 10C14 9.45 13.8043 8.979 13.413 8.587C13.021 8.19567 12.55 8 12 8C11.45 8 10.9793 8.19567 10.588 8.587C10.196 8.979 10 9.45 10 10C10 10.55 10.196 11.0207 10.588 11.412C10.9793 11.804 11.45 12 12 12ZM12 21.625C11.8667 21.625 11.7333 21.6 11.6 21.55C11.4667 21.5 11.35 21.4333 11.25 21.35C8.81667 19.2 7 17.2043 5.8 15.363C4.6 13.521 4 11.8 4 10.2C4 7.7 4.80433 5.70833 6.413 4.225C8.021 2.74167 9.88333 2 12 2C14.1167 2 15.979 2.74167 17.587 4.225C19.1957 5.70833 20 7.7 20 10.2C20 11.8 19.4 13.521 18.2 15.363C17 17.2043 15.1833 19.2 12.75 21.35C12.65 21.4333 12.5333 21.5 12.4 21.55C12.2667 21.6 12.1333 21.625 12 21.625Z" fill="inherit"/>
</svg>

<svg viewBox="0 0 24 24" fill="#3B69D1" xmlns="http://www.w3.org/2000/svg"><path d="M12 12c.6 0 1-.2 1.4-.6.4-.4.6-.8.6-1.4 0-.6-.2-1-.6-1.4A2 2 0 0 0 12 8a2 2 0 0 0-1.4.6A2 2 0 0 0 10 10c0 .6.2 1 .6 1.4.4.4.8.6 1.4.6Zm0 9.6h-.4l-.3-.3a30.9 30.9 0 0 1-5.5-6A9.6 9.6 0 0 1 4 10.3c0-2.5.8-4.5 2.4-6A8 8 0 0 1 12 2a8 8 0 0 1 5.6 2.2 7.7 7.7 0 0 1 2.4 6c0 1.6-.6 3.3-1.8 5.2a30.9 30.9 0 0 1-5.8 6.2H12Z" fill="inherit"/></svg>
